world_stage/static/flags/rect/syr.svg

<svg height="800" viewBox="0 0 1200 800" width="1200" xmlns="http://www.w3.org/2000/svg"><g transform="matrix(1.3333333 0 0 -1.3333333 0 800)"><path d="m0 0h900v600h-900z"/><path d="m0 200h900v400h-900z" fill="#fff"/><path d="m0 400h900v200.001h-900z" fill="#ce1126"/></g><g fill="#007a3d"><path d="m0 0-20.086-61.819 38.042-12.361" transform="matrix(1.3333333 0 0 -1.3333333 360 313.33333)"/><path d="m0 0 20.086-61.819-38.042-12.361" transform="matrix(1.3333333 0 0 -1.3333333 360 313.33333)"/><path d="m0 0h-65v-40" transform="matrix(1.3333333 0 0 -1.3333333 442.42507 373.2188)"/><path d="m0 0-52.586-38.206-23.512 32.361" transform="matrix(1.3333333 0 0 -1.3333333 442.42507 373.2188)"/><path d="m0 0 52.586-38.206 23.512 32.361" transform="matrix(1.3333333 0 0 -1.3333333 277.57493 373.2188)"/><path d="m0 0h65v-40" transform="matrix(1.3333333 0 0 -1.3333333 277.57493 373.2188)"/><path d="m0 0-20.086 61.818-38.042-12.36" transform="matrix(1.3333333 0 0 -1.3333333 410.94147 470.11453)"/><path d="m0 0-52.586 38.206 23.511 32.36" transform="matrix(1.3333333 0 0 -1.3333333 410.94147 470.11453)"/><path d="m0 0 52.586 38.206-23.511 32.36" transform="matrix(1.3333333 0 0 -1.3333333 309.05853 470.11453)"/><path d="m0 0 20.086 61.818 38.042-12.36" transform="matrix(1.3333333 0 0 -1.3333333 309.05853 470.11453)"/><path d="m0 0-20.086-61.819 38.042-12.361" transform="matrix(1.3333333 0 0 -1.3333333 840 313.33333)"/><path d="m0 0 20.086-61.819-38.042-12.361" transform="matrix(1.3333333 0 0 -1.3333333 840 313.33333)"/><path d="m0 0h-65v-40" transform="matrix(1.3333333 0 0 -1.3333333 922.42453 373.2188)"/><path d="m0 0-52.586-38.206-23.512 32.361" transform="matrix(1.3333333 0 0 -1.3333333 922.42453 373.2188)"/><path d="m0 0 52.586-38.206 23.512 32.361" transform="matrix(1.3333333 0 0 -1.3333333 757.57547 373.2188)"/><path d="m0 0h65v-40" transform="matrix(1.3333333 0 0 -1.3333333 757.57547 373.2188)"/><path d="m0 0-20.086 61.818-38.043-12.36" transform="matrix(1.3333333 0 0 -1.3333333 890.94147 470.11453)"/><path d="m0 0-52.586 38.206 23.511 32.36" transform="matrix(1.3333333 0 0 -1.3333333 890.94147 470.11453)"/><g transform="matrix(1.3333333 0 0 -1.3333333 789.05853 470.11453)"><path d="m0 0 52.586 38.206-23.512 32.36"/><path d="m0 0 20.086 61.818 38.042-12.36"/></g></g></svg>

<?xml version="1.0" encoding="UTF-8" standalone="no"?>
<!-- Created with Inkscape (http://www.inkscape.org/) -->

<svg
   version="1.1"
   id="svg1"
   width="1200"
   height="800"
   viewBox="0 0 1200 800"
   sodipodi:docname="sy.ai"
   xmlns:inkscape="http://www.inkscape.org/namespaces/inkscape"
   xmlns:sodipodi="http://sodipodi.sourceforge.net/DTD/sodipodi-0.dtd"
   xmlns="http://www.w3.org/2000/svg"
   xmlns:svg="http://www.w3.org/2000/svg">
  <defs
     id="defs1" />
  <sodipodi:namedview
     id="namedview1"
     pagecolor="#ffffff"
     bordercolor="#000000"
     borderopacity="0.25"
     inkscape:showpageshadow="2"
     inkscape:pageopacity="0.0"
     inkscape:pagecheckerboard="0"
     inkscape:deskcolor="#d1d1d1">
    <inkscape:page
       x="0"
       y="0"
       inkscape:label="1"
       id="page1"
       width="1200"
       height="800"
       margin="0"
       bleed="0" />
  </sodipodi:namedview>
  <g
     id="layer-MC0"
     inkscape:groupmode="layer"
     inkscape:label="Layer 1">
    <path
       id="path1"
       d="M 0,0 H 900 V 600 H 0 Z"
       style="fill:#000000;fill-opacity:1;fill-rule:nonzero;stroke:none"
       transform="matrix(1.3333333,0,0,-1.3333333,0,800)" />
    <path
       id="path2"
       d="M 0,200 H 900 V 600 H 0 Z"
       style="fill:#ffffff;fill-opacity:1;fill-rule:nonzero;stroke:none"
       transform="matrix(1.3333333,0,0,-1.3333333,0,800)" />
    <path
       id="path3"
       d="M 0,400 H 900 V 600.001 H 0 Z"
       style="fill:#ce1126;fill-opacity:1;fill-rule:nonzero;stroke:none"
       transform="matrix(1.3333333,0,0,-1.3333333,0,800)" />
    <path
       id="path4"
       d="M 0,0 -20.086,-61.819 17.956,-74.18"
       style="fill:#007a3d;fill-opacity:1;fill-rule:nonzero;stroke:none"
       transform="matrix(1.3333333,0,0,-1.3333333,360,313.33333)" />
    <path
       id="path5"
       d="M 0,0 20.086,-61.819 -17.956,-74.18"
       style="fill:#007a3d;fill-opacity:1;fill-rule:nonzero;stroke:none"
       transform="matrix(1.3333333,0,0,-1.3333333,360,313.33333)" />
    <path
       id="path6"
       d="M 0,0 H -65 V -40"
       style="fill:#007a3d;fill-opacity:1;fill-rule:nonzero;stroke:none"
       transform="matrix(1.3333333,0,0,-1.3333333,442.42507,373.2188)" />
    <path
       id="path7"
       d="M 0,0 -52.586,-38.206 -76.098,-5.845"
       style="fill:#007a3d;fill-opacity:1;fill-rule:nonzero;stroke:none"
       transform="matrix(1.3333333,0,0,-1.3333333,442.42507,373.2188)" />
    <path
       id="path8"
       d="M 0,0 52.586,-38.206 76.098,-5.845"
       style="fill:#007a3d;fill-opacity:1;fill-rule:nonzero;stroke:none"
       transform="matrix(1.3333333,0,0,-1.3333333,277.57493,373.2188)" />
    <path
       id="path9"
       d="M 0,0 H 65 V -40"
       style="fill:#007a3d;fill-opacity:1;fill-rule:nonzero;stroke:none"
       transform="matrix(1.3333333,0,0,-1.3333333,277.57493,373.2188)" />
    <path
       id="path10"
       d="M 0,0 -20.086,61.818 -58.128,49.458"
       style="fill:#007a3d;fill-opacity:1;fill-rule:nonzero;stroke:none"
       transform="matrix(1.3333333,0,0,-1.3333333,410.94147,470.11453)" />
    <path
       id="path11"
       d="m 0,0 -52.586,38.206 23.511,32.36"
       style="fill:#007a3d;fill-opacity:1;fill-rule:nonzero;stroke:none"
       transform="matrix(1.3333333,0,0,-1.3333333,410.94147,470.11453)" />
    <path
       id="path12"
       d="M 0,0 52.586,38.206 29.075,70.566"
       style="fill:#007a3d;fill-opacity:1;fill-rule:nonzero;stroke:none"
       transform="matrix(1.3333333,0,0,-1.3333333,309.05853,470.11453)" />
    <path
       id="path13"
       d="M 0,0 20.086,61.818 58.128,49.458"
       style="fill:#007a3d;fill-opacity:1;fill-rule:nonzero;stroke:none"
       transform="matrix(1.3333333,0,0,-1.3333333,309.05853,470.11453)" />
    <path
       id="path14"
       d="M 0,0 -20.086,-61.819 17.956,-74.18"
       style="fill:#007a3d;fill-opacity:1;fill-rule:nonzero;stroke:none"
       transform="matrix(1.3333333,0,0,-1.3333333,840,313.33333)" />
    <path
       id="path15"
       d="M 0,0 20.086,-61.819 -17.956,-74.18"
       style="fill:#007a3d;fill-opacity:1;fill-rule:nonzero;stroke:none"
       transform="matrix(1.3333333,0,0,-1.3333333,840,313.33333)" />
    <path
       id="path16"
       d="M 0,0 H -65 V -40"
       style="fill:#007a3d;fill-opacity:1;fill-rule:nonzero;stroke:none"
       transform="matrix(1.3333333,0,0,-1.3333333,922.42453,373.2188)" />
    <path
       id="path17"
       d="M 0,0 -52.586,-38.206 -76.098,-5.845"
       style="fill:#007a3d;fill-opacity:1;fill-rule:nonzero;stroke:none"
       transform="matrix(1.3333333,0,0,-1.3333333,922.42453,373.2188)" />
    <path
       id="path18"
       d="M 0,0 52.586,-38.206 76.098,-5.845"
       style="fill:#007a3d;fill-opacity:1;fill-rule:nonzero;stroke:none"
       transform="matrix(1.3333333,0,0,-1.3333333,757.57547,373.2188)" />
    <path
       id="path19"
       d="M 0,0 H 65 V -40"
       style="fill:#007a3d;fill-opacity:1;fill-rule:nonzero;stroke:none"
       transform="matrix(1.3333333,0,0,-1.3333333,757.57547,373.2188)" />
    <path
       id="path20"
       d="M 0,0 -20.086,61.818 -58.129,49.458"
       style="fill:#007a3d;fill-opacity:1;fill-rule:nonzero;stroke:none"
       transform="matrix(1.3333333,0,0,-1.3333333,890.94147,470.11453)" />
    <path
       id="path21"
       d="m 0,0 -52.586,38.206 23.511,32.36"
       style="fill:#007a3d;fill-opacity:1;fill-rule:nonzero;stroke:none"
       transform="matrix(1.3333333,0,0,-1.3333333,890.94147,470.11453)" />
    <path
       id="path22"
       d="M 0,0 52.586,38.206 29.074,70.566"
       style="fill:#007a3d;fill-opacity:1;fill-rule:nonzero;stroke:none"
       transform="matrix(1.3333333,0,0,-1.3333333,789.05853,470.11453)" />
    <path
       id="path23"
       d="M 0,0 20.086,61.818 58.128,49.458"
       style="fill:#007a3d;fill-opacity:1;fill-rule:nonzero;stroke:none"
       transform="matrix(1.3333333,0,0,-1.3333333,789.05853,470.11453)" />
  </g>
</svg>
